X: 1
T: Jenny Mickey's
M: 12/8
L: 1/8
R: slide
K: Dmaj
FFF F2E D3 D2 E | FFF F2D E3 E2F |
GFG B2G FEF A2F | EDE F2E D3 D3 :|
ABd A2F A3 A2 B | ABd A2F G3 G2F |
GFG B2G FEF A2F | EDE F2E D3 D3 :|
